X:2584
T:Cantar Relixosu (CT 168)
R:Relixosu
C:Tradicional
S:Música Tradicional Asturiana, (C) Tello & Tito. Asturies, 2001.
S:http://pagina.de/MusTradAst <telloytito@asturies.org>
N:Canto religioso, propio para oir Misa, transcrito en San Esteban de Relamiego, ayuntamiento de Tinéu.
N:Lo entonan los fieles al entrar en la iglesia.
N:Está relacionado con el CT 169.
O:San Esteban de Relamiego (Tinéu)
A:Asturies
Z:Cancioneru de Torner 168
M:6/8
L:1/8
Q:3/8=72
W:Por las puertas de Dios entro
W:a adorar a Dios y al templo
W:y a los santos que están dentro.
W:Alabado seya el Santísimo Sacramento.
K:G
GG
|c3 (B/c/4B/4)AG|B B2-Bcd|c2 c B2 G|AG2-GGG|
c3 (B/c/4B/4)AG|B B2-Bcd|c2 c BBc|ddc B2 G|A G2-G||


